!!!COM: Wahab, Mohamad Abdel
!!!CDT: 1915-1991
!!!OTL: National Anthem, United Arab Emirates
!!!ENC: Davis, Matthew J.
!!No Words, Melodic Line Only
**kern
*clefG2
*k[b-]
*F:
*M4/4
=1-
4cc
8.ff
16ee
4ff
4cc
=2
4ff
8gg
8ee
4aa
8gg
8ff
=3
4ee
8ff
8gg
2gg
=4
4gg
8.gg
16gg
4gg
4cc
=5
8.gg
16ff#
8gg
8aa
4bb-
4gg
=6
8.aa
16gg
8aa
8bb
4ccc
4ff
=7
4gg
4bb-
8.aa
16gg
8dd
8ee
=8
4ff
8.ff
16ff
4ff
4r
==9
4ff
8.ff
16ee
4dd
8.dd
16cc
=10
4b-
8.b-
16a
8g
16f
16g
16a
16b-
16cc
16dd
=11
4ee
8.ee
16dd
4cc
8.cc
16cc
=12
4a
8.a
16g
4..f
16ff
=13
4gg
4aa
4bb-
4gg
=14
4aa
4bb-
4ccc
4ddd
=15
8ee
8cc
8dd
8ff
8ee
8cc
8dd
8ee
=16
8ff
16ff
16ff
8ff
8ff
8ff
8ff
8ff
8ff
=17
4cc
8.ff
16ee
4ff
4cc
=18
4ff
8gg
8aa
4aa
8gg
8ff
=19
4ee
8ff
8gg
2gg
=20
4gg
8.gg
16gg
4gg
4cc
=21
8.cc
16ff#
8gg
8aa
4bb-
4gg
=22
8.aa
16gg
8aa
8bb-
4ccc
4ff
=23
4gg
4bb-
8aa
8gg
8dd
8ee
=24
4ff
8.ff
16ff
4ff
4r
==|!
*-
